X: 3
T: The Irish Washerwoman
R: jig
M: 6/8
L: 1/8
K: Gmaj
|:dc|BAB DGB|DGB dcB|cBc EGc|EGc edc|
|BAB DGB|DGB dcB|1 cBc ed^c| dfa g:|2 cBc BGB|AFA G||
|:ef|gfg Bdg|Bdg bag|fef Adf|Adf agf|
|gbg faf|gfe dBG|cBc BGB|AFA G:||


Tune 92	Setting 12636

